polaris-icons/icons/new-icons/MergeMinor.svg

<svg width="20" height="20" viewBox="0 0 20 20" fill="none" xmlns="http://www.w3.org/2000/svg">
<path fill-rule="evenodd" clip-rule="evenodd" d="M5.75 17C5.33579 17 5 16.6642 5 16.25L5 14.5545C5 13.336 5.592 12.1935 6.58744 11.4908L8.72086 9.9849C9.05267 9.75068 9.25 9.36984 9.25 8.96369L9.25 4.96299L7.25871 6.8011C6.95435 7.08206 6.47985 7.06308 6.1989 6.75871C5.91795 6.45435 5.93692 5.97985 6.24129 5.6989L9.49129 2.6989C9.77859 2.4337 10.2214 2.4337 10.5087 2.6989L13.7587 5.6989C14.0631 5.97985 14.0821 6.45435 13.8011 6.75871C13.5202 7.06308 13.0457 7.08206 12.7413 6.8011L10.75 4.96299V8.96369C10.75 9.85723 10.3159 10.6951 9.58588 11.2104L7.45246 12.7163C6.8552 13.1379 6.5 13.8234 6.5 14.5545L6.5 16.25C6.5 16.6642 6.16422 17 5.75 17ZM14.25 17C13.8358 17 13.5 16.6642 13.5 16.25V14.5545C13.5 13.8234 13.1448 13.1379 12.5475 12.7163L11.6925 12.1127C11.3541 11.8739 11.2734 11.4059 11.5123 11.0675C11.7511 10.7291 12.2191 10.6484 12.5575 10.8873L13.4126 11.4908C14.408 12.1935 15 13.336 15 14.5545V16.25C15 16.6642 14.6642 17 14.25 17Z" fill="#4A4A4A"/>
</svg>

<svg viewBox="0 0 20 20" xmlns="http://www.w3.org/2000/svg"><path fill-rule="evenodd" d="M5.75 17a.75.75 0 0 1-.75-.75v-1.695a3.75 3.75 0 0 1 1.587-3.064l2.134-1.506a1.25 1.25 0 0 0 .529-1.021v-4.001l-1.991 1.838a.75.75 0 1 1-1.018-1.102l3.25-3a.75.75 0 0 1 1.018 0l3.25 3a.75.75 0 1 1-1.018 1.102l-1.991-1.838v4a2.75 2.75 0 0 1-1.164 2.247l-2.134 1.506a2.25 2.25 0 0 0-.952 1.839v1.695a.75.75 0 0 1-.75.75Zm8.5 0a.75.75 0 0 1-.75-.75v-1.695a2.25 2.25 0 0 0-.953-1.839l-.854-.603a.75.75 0 1 1 .864-1.226l.856.604a3.75 3.75 0 0 1 1.587 3.064v1.695a.75.75 0 0 1-.75.75Z" fill="#5C5F62"/></svg>
